X: 27348
T: Mister O'Rourke's
R: reel
M: 4/4
K: Aminor
|:EAAB cBAc|B~G3 BcdB|edcB cBAG|E/F/G AB cBAG|
EAAB cBAc|B~G3 BcdB|edcB cBAG|1 F/E/D B,C A,2ED:|2 E/F/G AG A2DE||
|:~F3E FGAc|B~G3 G3D|EGBd edeB|cABG AGEG|
DFFE FGAc|BAGF GBcd|edcB cBAG|1 F/E/D B,C A,2G/F/E:|2 F/E/D B,C A,2ED||

